X:610
T:Rafe's Waltz
%%MIDI beat 100 95 80
S:Colin Hume's website,  colinhume.com  - chords can also be printed below the stave.
Q:1/4=120
M:3/4
L:1/4
K:Ador
E | "Am"A A B/A/ | "G"G A B | "C"e e/d/ B/A/ | "G"G A B |\
"Am"A A B/A/ | "G"G A B | "C"e g "D"f | "E"e2 d/d/ |
"Am"e e a | "C"e f g | "G"B/d/ e/d/ B/A/ | "Em"G A B |\
"Am"A A B/A/ | "G"G A B | "Em"e e/d/ B | "Am"A2 "G"d/B/ |
"Am"A A B/A/ | "G"G A B | "C"e e/d/ e/d/ | "G"B d d/B/ |\
"Am"A A B | "G"G G A | "C"e e "D"d | "E"e2 d |
"Am"e e a | "C"e f g | "G"B d/B/ A/G/ | "Em"E2 E |\
"Am"A A B | "G"G G A | "Em"e e/d/ B | "Am"A2 |]

